X: 33978
T: Reeaghyn Dy Vannin
R: reel
M: 4/4
K: Dmajor
F|:A4 F3D|E2 E2 G3F|A4 F3D|E2 E2 D3F|
A4 F3D|E2 E2 G3F|A4 F3D|1 E2 E2 D3F:|2 E2 E2 D4||
|:D2 DD D2 D2|E2 E2 G3F|A4 F3D|E2 E2 D4|
D2 DD D2 D2|E2 E2 G3F|A4 F2 D2|E2 E2 D4|
d4 F2 D2|E2 E2 G4|d4 F2 D2|E2 E2 D4|
d4 F2 D2|E2 E2 G3F|d4 F2 D2|1 E2 E2 D4:|2 E2 E2 D3F||
A4 F3D|E2 E2 G3F|A4 F3D|E2 E2 D3F|
A4 F3D|E2 E2 G3F|A4 F3D|E2 E2 D3||

